src/assets/filled/ArrowCircleDown.svg

<?xml version="1.0" encoding="UTF-8"?>
<svg width="24" height="24" viewBox="0 0 24 24" xmlns="http://www.w3.org/2000/svg">
 <path d="m12 2c-5.51 0-10 4.49-10 10s4.49 10 10 10 10-4.49 10-10-4.49-10-10-10zm4.06 9.27-3.53 3.53c-0.15 0.15-0.34 0.22-0.53 0.22s-0.38-0.07-0.53-0.22l-3.53-3.53c-0.29-0.29-0.29-0.77 0-1.06s0.77-0.29 1.06 0l3 3 3-3c0.29-0.29 0.77-0.29 1.06 0s0.29 0.76 0 1.06z"/>
</svg>

<svg width="24" height="24" viewBox="0 0 24 24"  xmlns="http://www.w3.org/2000/svg">
<path d="M12 2C6.49 2 2 6.49 2 12C2 17.51 6.49 22 12 22C17.51 22 22 17.51 22 12C22 6.49 17.51 2 12 2ZM16.06 11.27L12.53 14.8C12.38 14.95 12.19 15.02 12 15.02C11.81 15.02 11.62 14.95 11.47 14.8L7.94 11.27C7.65 10.98 7.65 10.5 7.94 10.21C8.23 9.92 8.71 9.92 9 10.21L12 13.21L15 10.21C15.29 9.92 15.77 9.92 16.06 10.21C16.35 10.5 16.35 10.97 16.06 11.27Z" />
</svg>
